app/img/info/council-item-bg.svg

<svg width="129" height="258" viewBox="0 0 129 258" fill="none" xmlns="http://www.w3.org/2000/svg">
<path fill-rule="evenodd" clip-rule="evenodd" d="M-9.49655e-10 257.989L0.0108643 258L40.5978 217.396C45.8369 219.26 51.3152 220.211 56.9674 220.211L91.2337 220.211L91.2337 162.8C96.2337 160.425 100.783 157.219 104.783 153.209L129 129L88.4076 88.4127C90.2772 83.1797 91.2337 77.6913 91.2337 72.0344L91.2337 37.7887L33.7935 37.7887C31.4185 32.7785 28.2174 28.2301 24.2282 24.2415L0.0108417 1.12766e-05L-2.25541e-05 0.0108755L-2.07569e-05 20.569L0.567286 20L14.8437 34.3296C18.5272 38.0241 21.2684 42.3722 22.9916 47.2657C27.4884 59.8993 24.2895 74.1912 14.8437 83.6866L0.572679 98L-1.40378e-05 97.426L-1.23632e-05 116.581L7.58121 109L7.58121 120.419L19 120.419L10.9216 128.497L19 136.576L7.58121 136.576L7.58121 148L-1.02793e-05 140.419L-8.52823e-06 160.448L0.447364 160L8.3557 167.928L8.3557 171.255C8.3557 186.76 15.8441 201.255 28 210.349L0.452757 238L-1.78815e-06 237.546L-9.49655e-10 257.989ZM73.6228 87.1048C75.8689 82.4191 77 77.4157 77 72.1969L77 52L37.9813 52C40.1843 66.9941 35.272 82.5269 24.3431 93.4816L22 95.8245L22 107L42.1934 107C55.5677 107 67.9078 99.1906 73.6228 87.1048ZM81.7557 151.998C86.6178 150.286 90.9668 147.539 94.6836 143.829L109 129.559L81.3505 102C72.2798 114.154 57.7798 121.655 42.2586 121.655L38.9253 121.655L31 129.56L45.3164 143.824C54.7976 153.28 69.0978 156.489 81.7557 151.998ZM41.8864 202.655C46.5618 204.874 51.5764 206 56.7904 206L77 206L77 166.997C61.9883 169.195 46.454 164.272 35.5143 153.338L33.1821 151L22 151L22 171.188C22 184.562 29.8048 196.913 41.8864 202.655Z" fill="#3CD993"/>
</svg>

<svg width="129" height="258" fill="none" xmlns="http://www.w3.org/2000/svg"><path fill-rule="evenodd" clip-rule="evenodd" d="m0 257.989.01.011 40.588-40.604a48.58 48.58 0 0 0 16.37 2.815h34.266V162.8c5-2.375 9.549-5.581 13.549-9.591L129 129 88.408 88.413a48.455 48.455 0 0 0 2.826-16.379V37.79h-57.44a48.407 48.407 0 0 0-9.566-13.548L.011 0 0 .01V20.57L.567 20l14.277 14.33c3.683 3.694 6.424 8.042 8.148 12.936 4.496 12.633 1.297 26.925-8.148 36.42L.573 98 0 97.426v19.155L7.581 109v11.419H19l-8.078 8.078L19 136.576H7.581V148L0 140.419v20.029L.447 160l7.909 7.928v3.327c0 15.505 7.488 30 19.644 39.094L.453 238 0 237.546v20.443ZM73.623 87.105C75.869 82.419 77 77.415 77 72.197V52H37.981c2.203 14.994-2.709 30.527-13.638 41.482L22 95.825V107h20.193c13.375 0 25.715-7.81 31.43-19.895Zm8.133 64.893c4.862-1.712 9.21-4.459 12.928-8.169L109 129.559 81.35 102c-9.07 12.154-23.57 19.655-39.091 19.655h-3.334L31 129.56l14.316 14.264c9.482 9.456 23.782 12.665 36.44 8.174Zm-39.87 50.657A34.493 34.493 0 0 0 56.79 206H77v-39.003c-15.012 2.198-30.546-2.725-41.486-13.659L33.182 151H22v20.188c0 13.374 7.805 25.725 19.886 31.467Z" fill="#3CD993"/></svg>
